X: 11
T: Little Katie Taylor's Fling
C: Paddy Taylor
M: 4/4
L: 1/8
R: highland fling
K: D Major 
|: (3GFE |\
D2 F>A G>EA>F | (3DDD F>A d2 e>f | 
g>ea>g f>d (3dcd |[1 e>dc>B (3ABA :|[2 e>dd>c d2 ||
|: A>g |\
f>dA>f g>eA>g | f>dA>F (3GGG A>g | 
[1 f>dc>A G>BE>G | A>B (3cBA G2 :| 
[2 g>ea>g (3fgf (3dcd | (3efe d>c d2 |]
